!!!COM: Scriabin, Alexander
!!!OTL: Prelude
!!!OPR: 24 Preludes
!!!OPS: 11
!!!ONM: 9
!!!ODT: 1894
!!!AGN: Prelude
**kern	**kern
*staff2	*staff1
*clefF4	*clefG2
*k[f#c#g#d#]	*k[f#c#g#d#]
*E:	*E:
*M3/4	*M3/4
=1	=1
*	*^
8c#L	4raa	4rc
8B#X	.	.
8c#	4ee	4e 4a
8F#	.	.
8G#	4bn	4e
8C#J	.	.
=2	=2	=2
[2.F#	[2.a	4c# 4e
.	.	4c# 4e
.	.	4c# 4e
=3	=3	=3
8F#L]	4a]	4cn 4e
8E#X	.	.
8F#	4a	4B 4d#
8BB	.	.
8C#X	4b	4A 4en
8FF#J	.	.
=4	=4	=4
2BB	4g#	4A 4d#
.	2f#	4A 4d#
4AA	.	4F# 4c#X
=5	=5	=5
8GG#L	4raa	4rc
8AA	.	.
8E	4f#	4F# 4c#
[8D#	.	.
8D#]	4g#	4F# 4B#X
8GG#J	.	.
*	*v	*v
=6	=6
8CC#L	4E 4c# 4e
8GG#	.
8E	4c# 4g# 4ee
8GG#	.
8E	4e 4g# 4dd#
8BnJ	.
=7	=7
8FF#L	4e 4g# 4cc#
8C#	.
8B	4e 4f# 4dd#
8A#X	.
8G#	4e 4a#X 4cc#
8F#J	.
=8	=8
8F#L	4e 4an 4cc#
8G#	.
8An	4d# 4f# 4b
8A#X	.
8B	4r
8B#XJ	.
=9	=9
*	*^
8c#L	4raa	4rc
8B#X	.	.
8c#	8eeL	4e 4a
8F#	8dd#J	.
8G#	12cc#L	4e
.	12.bn	.
8C#J	.	.
.	24cc#Jk	.
=10	=10	=10
[2.F#	[2.a	4c# 4e
.	.	4c# 4e
.	.	4c# 4e
=11	=11	=11
8F#L]	4a]	4cn 4e
8E#X	.	.
8F#	4a	4B 4d#
8BB	.	.
8C#X	4b	4A 4en
8FF#J	.	.
=12	=12	=12
2BB	4g#	4A 4d#
.	4f#	4A 4d#
4AA	4raa	4F# 4c#X
=13	=13	=13
8GG#L	4raa	4rc
8AA	.	.
8E	2f#	4F# 4c#
[8D#J	.	.
4D#]	.	4F# 4c#
=14	=14	=14
8GG#L	4raa	4rc
8AA	.	.
8E	4f#	4F# 4c#
[8D#J	.	.
4D#]	4g#	4F# 4B#X
=15	=15	=15
8C#L	4raa	4rc
8Dn	.	.
8A	2bn	4Bn 4f#
[8G#J	.	.
4G#]	.	4B 4f#
=16	=16	=16
8C#L	4raa	4rc
8Dn	.	.
8A	4b	4B 4f#
[8G#J	.	.
4G#]	4cc#	4B 4e#X
=17	=17	=17
*^	*	*
4rc	8G#L	4raa	4rc
.	[8AJ	.	.
4rc	4.A] 4.f#	4cc#	4c# 4a
8rc	.	4a	4c# 4a
8A	[8A	.	.
=18	=18	=18	=18
2f#	2.A]	2.b	4dn 4a
.	.	.	4d 4a
4e#X	.	.	4d 4a
*v	*v	*	*
=19	=19	=19
8G#L	4raa	4rc
[8AJ	.	.
2A] 2f#	4cc#	4c# 4a
.	4a	4c# 4a
*	*v	*v
=20	=20
2.D#	4c# 4f# 4b
.	4c# 4f# 4a
.	4A 4c# 4f#
=21	=21
*^	*^
4rc	8D#L	4raa	4rc
.	[8EJ	.	.
4rc	4.E] 4.c#	4g#	4G# 4e
8rc	.	4e	4G# 4e
8E	[8E	.	.
=22	=22	=22	=22
2c#	2.E]	2.f#	4A 4e
.	.	.	4A 4e
4B#X	.	.	4A 4e
=23	=23	=23	=23
4rc	8D#L	4raa	4rc
.	[8EJ	.	.
4rc	4.E] 4.c#	4g#	4G# 4e
8rc	.	4e	4G# 4e
8E	[8E	.	.
=24	=24	=24	=24
4.c#	2.E]	2.e	4A
.	.	.	4A
4.cn	.	.	.
.	.	.	4A
=25	=25	=25	=25
*	*^	*	*
2.ryy	4rEE	8GG#\L	4raa	4rc
.	.	[8AA\J	.	.
.	4.E	2AA\]	2e	4A 4cn
.	.	.	.	4A 4c
.	[8E	.	.	.
*	*v	*v	*	*
=26	=26	=26	=26
2.cn	2.E]	2.f#	4A 4e
.	.	.	4A 4e
.	.	.	4A 4e
=27	=27	=27	=27
*	*^	*	*
2.ryy	4rEE	8FF##X/L	4raa	4rc
.	.	[8GG#/J	.	.
.	4.E	2GG#/]	2f#	4G# 4B#X 4e
.	.	.	.	4G# 4B# 4e
.	[8E	.	.	.
*	*v	*v	*	*
=28	=28	=28	=28
2.B#X	2.E]	2.g#	4G# 4e
.	.	.	4G# 4e
.	.	.	4G# 4e
=29	=29	=29	=29
*	*^	*	*
2.ryy	4rEE	8EE#X/L	4raa	4rc
.	.	[8FF#/J	.	.
.	4.En	2FF#/]	2g#	4A 4c# 4e
.	.	.	.	4A 4c# 4e
.	[8E	.	.	.
*	*v	*v	*	*
=30	=30	=30	=30
[2c#	2E]	[2a	4A 4e
.	.	.	4A 4e
8c#_	4rEE	8a]	8A 8e
8c#_	.	8raa	8rc
*v	*v	*	*
=31	=31	=31
8c#L]	4raa	4rc
8B#X	.	.
8c#	8eeL	4e 4a
8F#	8dd#J	.
8G#	12cc#L	4e
.	12.bn	.
8C#J	.	.
.	24cc#Jk	.
=32	=32	=32
2F#	2a	4c# 4e
.	.	4c# 4e
4C# 4G#	12cc#L	4e
.	12.b	.
.	24cc#Jk	.
=33	=33	=33
2.F#	2.a	2.c# 2.e
*	*v	*v
=34	=34
2.BB	2.B 2.d# 2.g#
=35	=35
2.EEE [2.EE [2.BB	[2.G# [2.e [2.b
=36	=36
2.EE] 2.BB]	2.G#] 2.e] 2.b]
==	==
*-	*-
!!!system-decoration: {(s1,s2)}
